assets/img/braze_icons/flag-05.svg

<svg fill="none" height="24" viewBox="0 0 24 24" width="24" xmlns="http://www.w3.org/2000/svg"><path clip-rule="evenodd" d="m4.5123 1.5h8.0307c.2524-.00003.4982-.00006.7064.01695.2286.01868.4983.06274.7697.20104.3764.19175.6823.49771.8741.87403.1383.27143.1823.54116.201.76976.017.20815.017.45393.0169.70631v1.65409l5.0617-.00001c.1949-.00005.4036-.0001.5785.01594.1806.01657.4884.06036.7746.26619.3424.24616.5653.62505.6142 1.04387.041.35022-.0702.64051-.1434.80641-.071.16073-.1724.34309-.2671.51344l-1.4313 2.57638 1.4313 2.5764c.0947.1703.1961.3527.2671.5134.0732.1659.1844.4562.1434.8064-.0489.4189-.2718.7977-.6142 1.0439-.2862.2058-.594.2496-.7746.2662-.1749.016-.3835.016-.5784.0159h-7.6603c-.2524.0001-.4982.0001-.7064-.0169-.2285-.0187-.4983-.0628-.7697-.2011-.3763-.1917-.6823-.4977-.874-.874-.1383-.2714-.1824-.5412-.20108-.7697-.017-.2082-.01697-.454-.01694-.7064v-1.654l-4.05255-.0001 2.32824 9.313c.13395.5358-.19181 1.0788-.7276 1.2127-.5358.134-1.07873-.1918-1.21268-.7276l-4.26196-17.04774c-.07699-.30781-.14987-.59918-.18892-.84631-.04174-.26409-.06617-.59237.04096-.939.14457-.46777.4557-.86627.87444-1.11997.3103-.18801.6347-.24393.90103-.26749.24922-.02205.54956-.02202.86686-.02199z" fill="#801ed7" fill-rule="evenodd"/></svg>

<svg width="24" height="24" viewBox="0 0 24 24" fill="none" xmlns="http://www.w3.org/2000/svg">
<path fill-rule="evenodd" clip-rule="evenodd" d="M4.5123 1.5H12.543C12.7954 1.49997 13.0412 1.49994 13.2494 1.51695C13.478 1.53563 13.7477 1.57969 14.0191 1.71799C14.3955 1.90974 14.7014 2.2157 14.8932 2.59202C15.0315 2.86345 15.0755 3.13318 15.0942 3.36178C15.1112 3.56993 15.1112 3.81571 15.1111 4.06809V5.72218L20.1728 5.72217C20.3677 5.72212 20.5764 5.72207 20.7513 5.73811C20.9319 5.75468 21.2397 5.79847 21.5259 6.0043C21.8683 6.25046 22.0912 6.62935 22.1401 7.04817C22.1811 7.39839 22.0699 7.68868 21.9967 7.85458C21.9257 8.01531 21.8243 8.19767 21.7296 8.36802L20.2983 10.9444L21.7296 13.5208C21.8243 13.6911 21.9257 13.8735 21.9967 14.0342C22.0699 14.2001 22.1811 14.4904 22.1401 14.8406C22.0912 15.2595 21.8683 15.6383 21.5259 15.8845C21.2397 16.0903 20.9319 16.1341 20.7513 16.1507C20.5764 16.1667 20.3678 16.1667 20.1729 16.1666L12.5126 16.1666C12.2602 16.1667 12.0144 16.1667 11.8062 16.1497C11.5777 16.131 11.3079 16.0869 11.0365 15.9486C10.6602 15.7569 10.3542 15.4509 10.1625 15.0746C10.0242 14.8032 9.9801 14.5334 9.96142 14.3049C9.94442 14.0967 9.94445 13.8509 9.94448 13.5985L9.94448 11.9445L5.89193 11.9444L8.22017 21.2574C8.35412 21.7932 8.02836 22.3362 7.49257 22.4701C6.95677 22.6041 6.41384 22.2783 6.27989 21.7425L2.01793 4.69476C1.94094 4.38695 1.86806 4.09558 1.82901 3.84845C1.78727 3.58436 1.76284 3.25608 1.86997 2.90945C2.01454 2.44168 2.32567 2.04318 2.74441 1.78948C3.05471 1.60147 3.37911 1.54555 3.64544 1.52199C3.89466 1.49994 4.195 1.49997 4.5123 1.5Z" fill="#801ED7"/>
</svg>
